24x24/apps/chrome-mnfehgbmkapmjnhcnbodoamcioleeooe-Default.svg

<svg xmlns="http://www.w3.org/2000/svg" width="24" height="24" version="1.1">
 <path style="opacity:0.2" d="m 3.0000012,2.4999489 c -0.554,0 -0.9999999,0.4459843 -0.9999999,0.9999874 V 21.499935 c 0,0.554003 0.4459999,1.000025 0.9999999,1.000025 H 14.000001 L 22,14.499948 V 3.4999363 C 22,2.9459332 21.554,2.4999489 21,2.4999489 Z"/>
 <path style="fill:#ffa234" d="m 3.0000012,1.9999553 c -0.554,0 -0.9999999,0.446022 -0.9999999,0.9999873 V 20.999941 c 0,0.554003 0.4459999,1.000025 0.9999999,1.000025 H 14.000001 L 22,13.999954 V 2.9999426 C 22,2.4459773 21.554,1.9999553 21,1.9999553 Z"/>
 <path style="fill:#ffcd82" d="m 22,13.999992 -7.999999,7.999974 v -6.999987 c 0,0 0,-0.999987 0.999999,-0.999987 z"/>
 <path style="opacity:0.2;fill:#f4f4f7" d="m 3,1.9999931 c -0.554,0 -0.9999999,0.446022 -0.9999999,0.9999873 V 3.499974 C 2.0000001,2.9460087 2.446,2.4999867 3,2.4999867 h 17.999999 c 0.554,0 1,0.446022 1,0.9999873 V 2.9999804 c 0,-0.5539653 -0.446,-0.9999873 -1,-0.9999873 z"/>
 <path style="opacity:0.2;fill:#f4f4f7" d="m 14.999999,13.999992 c -1,0 -1,0.999987 -1,0.999987 v 0.499994 c 0,0 0,-0.999987 1,-0.999987 h 6.5 l 0.5,-0.499994 z"/>
 <path style="fill:#4b4b4b" d="m 9.0000009,5.9999801 c 1.3504161,0.002 2.5794611,0.7798677 3.1582101,2.0000124 H 19 v 2.9999995 h -6.84277 c -0.578596,1.219767 -1.807167,1.998047 -3.1572291,1.999975 -1.350058,-0.002 -2.578624,-0.780208 -3.1572197,-1.999975 H 9.0000009 V 7.9999925 H 5.8418012 C 6.4205492,6.7798478 7.6495891,6.0015297 9.0000009,5.9999801 Z"/>
</svg>

<svg xmlns="http://www.w3.org/2000/svg" width="24" height="24"><path style="opacity:.2" d="M3 2.5c-.554 0-1 .446-1 1v18c0 .554.446 1 1 1h11l8-8v-11c0-.554-.446-1-1-1z"/><path style="fill:#ffa234" d="M3 2c-.554 0-1 .446-1 1v18c0 .554.446 1 1 1h11l8-8V3c0-.554-.446-1-1-1z"/><path style="fill:#ffcd82" d="m22 14-8 8v-7s0-1 1-1z"/><path style="opacity:.2;fill:#f4f4f7" d="M3 2c-.554 0-1 .446-1 1v.5c0-.554.446-1 1-1h18c.554 0 1 .446 1 1V3c0-.554-.446-1-1-1zM15 14c-1 0-1 1-1 1v.5s0-1 1-1h6.5l.5-.5z"/><path style="fill:#4b4b4b" d="M9 6a3.5 3.5 0 0 1 3.158 2H19v3h-6.843A3.5 3.5 0 0 1 9 13a3.5 3.5 0 0 1-3.157-2H9V8H5.842A3.5 3.5 0 0 1 9 6z"/></svg>
